!!!COM: Corelli, Arcangelo
!!!OTL: 
!!!ONM: Opus 5, No. 10
!!!OMV: 1
!!!CDT: 1653/2/17/-1713/1/8/
!!!OCY: Italia
**kern	**kern
*clefC	*clefG
*k[b-]	*k[b-]
*F:	*F:
*M4/4	*M4/4
=1	=1
4F	4a
4E	4cc
4D	4.f
4AA	.
.	16ff
.	16cc
=2	=2
4BB-	8dd
.	8cc
4C	4b-
4FF	8a
.	8f
4F	8r
.	16a
.	16b
=3	=3
4.E	8cc
.	8g
.	8cc
8E	16dd
.	16ee
8D	8ff
8C	16gg
.	16aa
8BB	8.gg
8GG	.
.	16ff
=4	=4
8C	8ee
8D	8cc
8E	8r
8C	8gg
4F	8aa
.	8dd
4G	8dd
.	8ee
=5	=5
8A	4ff
8B	.
8c	8ee
8E	8gg
8F	16aa
.	16b
16E	16cc
16F	16dd
8G	8.dd
8GG	.
.	16cc
=6	=6
4C	4.cc
4AA	.
.	16ff
.	16cc
4BB-	8dd
.	4dd
4EE	.
.	16cc
.	16b-
=7	=7
8FF	8a
16F	8f
16G	.
8A	8r
8F	8cc
4E	8.cc#
.	16cc#
4D	8.dd
.	16dd
=8	=8
4C#	8ee
.	8a
4C	8r
.	8aa
4BB	8aa
.	8dd
8BB-	8gg
16AA	16aa
16GG	16bb-
=9	=9
8AA	8cc#
8D	16dd
.	16ee
8A	8.ee
8AA	.
.	16dd
8D	2dd
8E	.
8F	.
16E	.
16F	.
=10	=10
8GG#	16dd
.	16ee
8AA	16dd
.	16cc
8E	8.b
8EE	.
.	16a
4AA	4.a
[4F	.
.	8dd
=11	=11
4F]	8g
.	16a
.	16b-
2E	8cc
.	8c
.	4.f
[4D	.
.	8b-
=12	=12
4D]	8e
.	16f
.	16g
2C	8a
.	8A
.	4.d
[4BB-	.
.	8g
=13	=13
4BB-]	8e
.	8c
4AA	8r
.	8cc
4D	8cc
.	8b-
4E	8b-
.	8b-
=14	=14
8F	8b-
8G	8a
8A	8r
8F	8cc
8B-	4dd
8BB-	.
8C	4ee
8c	.
=15	=15
8d	4.ff
16c	.
16B-	.
8A	.
8F	8aa
8B-	16dd
.	16ee
16A	8ff
16B-	.
8c	8.ff
8C	.
.	16ee
=16	=16
8F	4.ff
8G	.
8A	.
8AA	8cc
4BB-	8dd
.	8f
4C	8f
.	8f
=17	=17
4D	4.f
4AA	.
.	8cc
4BB-	16dd
.	16e
.	16f
.	16g
4C	8.g
.	16f
=18	=18
1FF	1f
==	==
*-	*-
!!!RWG: This file only contains pitch and duration data.
!!!RWG: Transposing instruments are not transposed.
!!!RWG: Durations of rests and tied notes may be interpreted.
!!!RWG: Key is interpreted using the Humdrum key tool.
!!!SCA: 
!!!YOR: 
!!!AGN: violin
!!!AFT: stage1
!!!ENC: F. Bennion
!!!END: 1997/04/15
!!!AST: baroque
!!!YEC: Copyright 1994, Center for Computer Assisted Research in the Humanities
!!!YEM: Rights to all derivative electronic formats reserved.
!!!YEM: Refer to licensing agreement for further details.
!!!YEN: United States of America
!!!EED: W.B. Hewlett
!!!KEY: 854897240
!!!EMD: Converted from MuseData to Humdrum Aug 9, 1999, by Bret Aarden using muse2kern.
!!!VTS: 1651687734
